X:1
T:Ben Newe
T:Ben Newe
T:Alexander Walker
C:Alexander Walker
L:1/8
M:2/2
K:C
V:1 treble 
V:1
 G | c2 ed cG EC | cedc dDDG | c2 ed cG Aa | gedf ecc :| f | ecgc acgc | c'cgc eddf | ecge acgc | %9
 fdgf eccf | ecgc acgc | bcgc eddf | eceg fagf | ecdB cC[Cc] || %14

